Catalina-light/actions/16/edit-undo-symbolic.svg

<?xml version="1.0" encoding="UTF-8" standalone="no"?>
<svg
   xmlns:dc="http://purl.org/dc/elements/1.1/"
   xmlns:cc="http://creativecommons.org/ns#"
   xmlns:rdf="http://www.w3.org/1999/02/22-rdf-syntax-ns#"
   xmlns:svg="http://www.w3.org/2000/svg"
   xmlns="http://www.w3.org/2000/svg"
   xmlns:sodipodi="http://sodipodi.sourceforge.net/DTD/sodipodi-0.dtd"
   xmlns:inkscape="http://www.inkscape.org/namespaces/inkscape"
   viewBox="0 0 16 16"
   id="svg2"
   version="1.1"
   inkscape:version="0.91 r13725"
   sodipodi:docname="edit-redo-rtl-symbolic.svg">
  <metadata
     id="metadata10">
    <rdf:RDF>
      <cc:Work
         rdf:about="">
        <dc:format>image/svg+xml</dc:format>
        <dc:type
           rdf:resource="http://purl.org/dc/dcmitype/StillImage" />
      </cc:Work>
    </rdf:RDF>
  </metadata>
  <sodipodi:namedview
     pagecolor="#ffffff"
     bordercolor="#666666"
     borderopacity="1"
     objecttolerance="10"
     gridtolerance="10"
     guidetolerance="10"
     inkscape:pageopacity="0"
     inkscape:pageshadow="2"
     inkscape:window-width="640"
     inkscape:window-height="480"
     id="namedview8"
     showgrid="false"
     inkscape:zoom="39.8125"
     inkscape:cx="7.0957614"
     inkscape:cy="8"
     inkscape:current-layer="svg2" />
  <defs
     id="defs3051">
    <style
       type="text/css"
       id="current-color-scheme">
      .ColorScheme-Text {
        color:#bebebe;
      }
      </style>
  </defs>
  <path
     style="color:#bebebe;fill:currentColor;fill-opacity:1;stroke:none"
     class="ColorScheme-Text"
     d="M 8.374952,4.8 C 6.53435,4.8 4.905386,5.6911534 3.879164,7.0632611 L 2,5.1764014 2,11.2 8.000372,11.2 5.958962,9.1508363 C 6.50138,7.4992291 8.048252,6.3058618 9.874838,6.3058618 12.15425,6.3058618 14,8.1602967 14,10.447168 14.000024,7.3279593 11.481764,4.8 8.374952,4.8 Z"
     id="path6"
     inkscape:connector-curvature="0" />
</svg>

<svg version="1.1" viewBox="0 0 16 16" xmlns="http://www.w3.org/2000/svg">
<defs>
<style id="current-color-scheme" type="text/css">.ColorScheme-Text {
        color:#363636;
      }</style>
</defs>
<path class="ColorScheme-Text" d="m8.375 4.8c-1.8406 0-3.4696 0.89115-4.4958 2.2633l-1.8792-1.8869v6.0236h6.0004l-2.0414-2.0492c0.54242-1.6516 2.0893-2.845 3.9159-2.845 2.2794 0 4.1252 1.8544 4.1252 4.1413 2.4e-5 -3.1192-2.5182-5.6472-5.625-5.6472z" color="#363636" fill="#363636"/>
</svg>
